X: 26527
T: Michael Ward
R: reel
M: 4/4
K: Eminor
D|E2 EF TG2 AB|cBAG TF>E D2|e2 eB c2BA|GFGA B4|
EFGA BABG|AGAF GFGE|Td2G2Td2B2|bagf g4|
Tf2 Bg Tf2d2|edef Td2B2|BAGF G2A2|B4 z2||
ga|bagb agfa|g2 Tfe dBdB|g2 g/a/b GBGB|A2B2 e4|
g2 f/g/a gdBd|gdga bc'ba|g2 fe deBA|GFGA B4|
E2 EF GFGE|FEFG AGAF|GFGA BABG|A2B2 Tc4|
B2 eB cBAc|BAGB TA2 GF|GFEG TFEDF|B2 [B,2B2] E4||

